X:194
T:Mazurka des Italiens
O:France
M:3/4
L:1/8
Q:1/4=180
K:C
G2|:c2cB AB|c2c2G2|c2c2 BA|G6|
fe dc BA|G2G2 BA|G2G2 AB|c4G2:|
|:e2 ed cd|e2e2G2|e2 ed cd|e4e2|
d2 dc Bc|d2d2G2|1cB cd ef|g4G2:|2d2e2d2|c6||
